;FLAVOR:Marlin
;TIME:4465
;Filament used: 12.6405m
;Layer height: 0.3
;MINX:74.513
;MINY:74.517
;MINZ:0.4
;MAXX:145.479
;MAXY:145.486
;MAXZ:30.4
;Generated with Cura_SteamEngine 4.12.1
M140 S80
M105
M190 S80
M104 S220
M105
M109 S220
M82 ;absolute extrusion mode
G28 ;Home
G1 Z15.0 F2000 ;Move the platform
G92 E0
G92 E0
G1 F1500 E-6.5
;LAYER_COUNT:101
;LAYER:0
M107
M204 S1000
G0 F7500 X84.621 Y85.186 Z0.4
;TYPE:SKIRT
G1 F1500 E0
G1 X85.047 Y84.768 E0.09925
G1 X86.002 Y83.862 E0.31817
G1 X86.513 Y83.39 E0.43385
G1 X86.73 Y83.199 E0.48193
G1 X86.825 Y83.118 E0.50269
G1 X87.271 Y82.75 E0.59885
G1 X88.197 Y82.006 E0.79639
G1 X88.756 Y81.568 E0.91449
G1 X88.99 Y81.393 E0.96308
G1 X89.528 Y81.017 E1.07224
G1 X90.568 Y80.313 E1.28109
G1 X91.162 Y79.921 E1.39944
G1 X91.418 Y79.761 E1.44965
G1 X91.992 Y79.427 E1.56009
G1 X93.055 Y78.826 E1.76316
G1 X93.675 Y78.487 E1.88068
G1 X93.931 Y78.356 E1.9285
G1 X94.575 Y78.047 E2.04729
G1 X95.608 Y77.57 E2.23651
G1 X96.304 Y77.26 E2.36321
G1 X96.569 Y77.149 E2.41099
G1 X97.182 Y76.915 E2.52011
G1 X98.367 Y76.481 E2.72998
G1 X98.974 Y76.268 E2.83696
G1 X99.244 Y76.18 E2.88418
G1 X99.386 Y76.136 E2.9089
G1 X99.974 Y75.966 E3.01069
G1 X101.136 Y75.645 E3.21117
G1 X101.765 Y75.48 E3.31932
G1 X102.053 Y75.412 E3.36853
G1 X102.687 Y75.281 E3.47619
G1 X103.991 Y75.033 E3.69693
G1 X104.617 Y74.923 E3.80263
G1 X104.903 Y74.881 E3.8507
G1 X105.664 Y74.788 E3.9782
G1 X106.761 Y74.671 E4.16167
G1 X107.539 Y74.599 E4.2916
G1 X107.82 Y74.581 E4.33843
G1 X108.47 Y74.555 E4.44661
G1 X109.725 Y74.524 E4.65538
G1 X110.395 Y74.517 E4.76681
G1 X110.663 Y74.52 E4.81138
G1 X110.81 Y74.524 E4.83583
G1 X111.377 Y74.55 E4.93023
G1 X112.619 Y74.62 E5.1371
G1 X113.352 Y74.673 E5.25932
G1 X113.646 Y74.703 E5.30846
G1 X114.33 Y74.79 E5.42313
G1 X115.459 Y74.948 E5.61271
G1 X116.309 Y75.08 E5.75576
G1 X116.545 Y75.124 E5.79568
G1 X117.114 Y75.244 E5.89239
G1 X118.306 Y75.511 E6.09553
G1 X119.055 Y75.691 E6.22364
G1 X119.337 Y75.767 E6.27221
G1 X119.994 Y75.963 E6.38623
G1 X121.061 Y76.295 E6.57206
G1 X121.774 Y76.528 E6.6968
G1 X122.033 Y76.62 E6.74251
G1 X122.666 Y76.863 E6.85527
G1 X123.805 Y77.323 E7.05955
G1 X124.452 Y77.595 E7.17627
G1 X124.7 Y77.705 E7.22139
G1 X124.832 Y77.767 E7.24564
G1 X125.321 Y78.006 E7.33615
G1 X126.434 Y78.564 E7.54321
G1 X127.053 Y78.886 E7.65924
G1 X127.308 Y79.027 E7.7077
G1 X127.96 Y79.412 E7.83362
G1 X128.94 Y80.009 E8.02445
G1 X129.574 Y80.407 E8.14894
G1 X129.823 Y80.573 E8.19871
G1 X130.371 Y80.961 E8.31037
G1 X131.303 Y81.638 E8.50194
G1 X131.878 Y82.068 E8.62134
G1 X132.094 Y82.238 E8.66705
G1 X132.599 Y82.659 E8.77639
G1 X133.548 Y83.475 E8.98453
G1 X134.069 Y83.935 E9.10011
G1 X134.359 Y84.205 E9.16601
G1 X134.795 Y84.635 E9.26784
G1 X135.613 Y85.462 E9.46128
G1 X136.119 Y85.989 E9.58278
G1 X136.293 Y86.177 E9.62538
G1 X136.387 Y86.283 E9.64894
G1 X136.781 Y86.741 E9.74941
G1 X137.564 Y87.676 E9.95223
G1 X137.987 Y88.194 E10.06344
G1 X138.22 Y88.497 E10.12701
G1 X138.602 Y89.021 E10.23485
G1 X139.255 Y89.945 E10.42301
G1 X139.721 Y90.623 E10.55983
G1 X139.887 Y90.879 E10.61057
G1 X140.211 Y91.412 E10.7143
G1 X140.829 Y92.459 E10.91648
G1 X141.21 Y93.126 E11.04423
G1 X141.365 Y93.416 E11.09891
G1 X141.588 Y93.862 E11.18183
G1 X142.163 Y95.044 E11.40043
G1 X142.459 Y95.675 E11.51633
G1 X142.578 Y95.948 E11.56586
G1 X142.832 Y96.576 E11.67851
G1 X143.26 Y97.676 E11.8748
G1 X143.506 Y98.337 E11.9921
G1 X143.633 Y98.708 E12.05731
G1 X143.803 Y99.253 E12.15225
G1 X144.158 Y100.443 E12.35876
G1 X144.339 Y101.082 E12.46921
G1 X144.433 Y101.451 E12.53254
G1 X144.591 Y102.154 E12.65236
G1 X144.81 Y103.198 E12.82976
G1 X144.968 Y104.008 E12.967
G1 X145.016 Y104.291 E13.01474
G1 X145.105 Y104.926 E13.12137
G1 X145.253 Y106.092 E13.31683
G1 X145.332 Y106.788 E13.43332
G1 X145.358 Y107.065 E13.47959
G1 X145.369 Y107.214 E13.50443
G1 X145.401 Y107.784 E13.59937
G1 X145.453 Y108.948 E13.79314
G1 X145.478 Y109.752 E13.92691
G1 X145.479 Y110.054 E13.97714
G1 X145.463 Y110.712 E14.08659
G1 X145.419 Y111.899 E14.28413
G1 X145.376 Y112.715 E14.42002
G1 X145.353 Y112.986 E14.46525
G1 X145.292 Y113.562 E14.56157
G1 X145.154 Y114.723 E14.75601
G1 X145.042 Y115.551 E14.89496
G1 X144.995 Y115.841 E14.94381
G1 X144.881 Y116.44 E15.04522
G1 X144.642 Y117.627 E15.24658
G1 X144.501 Y118.282 E15.358
G1 X144.427 Y118.583 E15.40955
G1 X144.219 Y119.339 E15.53994
G1 X143.919 Y120.377 E15.71963
G1 X143.696 Y121.109 E15.84688
G1 X143.607 Y121.378 E15.894
G1 X143.358 Y122.064 E16.01537
G1 X142.951 Y123.132 E16.20543
G1 X142.686 Y123.802 E16.32525
G1 X142.584 Y124.046 E16.36924
G1 X142.305 Y124.654 E16.48048
G1 X141.774 Y125.768 E16.68571
G1 X141.414 Y126.494 E16.82047
G1 X141.278 Y126.753 E16.86912
G1 X140.961 Y127.314 E16.97628
G1 X140.372 Y128.325 E17.17086
G1 X139.97 Y128.993 E17.30052
G1 X139.813 Y129.24 E17.34919
G1 X139.461 Y129.759 E17.45348
G1 X138.751 Y130.779 E17.66015
G1 X138.306 Y131.397 E17.7868
G1 X138.138 Y131.615 E17.83257
G1 X137.744 Y132.104 E17.937
G1 X137.01 Y132.995 E18.12898
G1 X136.515 Y133.578 E18.25616
G1 X136.255 Y133.868 E18.32094
G1 X135.866 Y134.277 E18.4148
G1 X135.032 Y135.137 E18.61403
G1 X134.476 Y135.692 E18.74467
G1 X134.255 Y135.9 E18.79515
G1 X133.761 Y136.341 E18.90527
G1 X132.89 Y137.103 E19.09773
G1 X132.347 Y137.564 E19.21618
G1 X132.151 Y137.723 E19.25815
G1 X131.625 Y138.124 E19.36815
G1 X130.64 Y138.851 E19.57174
G1 X129.955 Y139.342 E19.7119
G1 X129.704 Y139.512 E19.76231
G1 X129.234 Y139.81 E19.85486
G1 X128.171 Y140.47 E20.06294
G1 X127.586 Y140.821 E20.17639
G1 X127.264 Y141.003 E20.2379
G1 X126.679 Y141.312 E20.34793
G1 X125.678 Y141.824 E20.53491
G1 X125.004 Y142.158 E20.66
G1 X124.739 Y142.281 E20.70859
G1 X124.066 Y142.57 E20.83039
G1 X122.987 Y143.016 E21.02455
G1 X122.329 Y143.277 E21.14227
G1 X121.98 Y143.405 E21.20409
G1 X121.438 Y143.585 E21.29907
G1 X120.241 Y143.97 E21.50817
G1 X119.595 Y144.168 E21.62054
G1 X119.313 Y144.246 E21.66919
G1 X118.665 Y144.407 E21.78023
G1 X117.408 Y144.699 E21.99484
G1 X116.768 Y144.838 E22.10375
G1 X116.399 Y144.908 E22.16621
G1 X115.802 Y145.004 E22.26677
G1 X114.662 Y145.172 E22.4584
G1 X113.865 Y145.279 E22.59213
G1 X113.566 Y145.311 E22.64214
G1 X112.882 Y145.364 E22.75623
G1 X111.768 Y145.436 E22.94187
G1 X110.862 Y145.482 E23.09274
G1 X110.58 Y145.486 E23.13964
G1 X110.083 Y145.483 E23.22229
G1 X108.839 Y145.464 E23.42919
G1 X108.14 Y145.443 E23.54549
G1 X107.76 Y145.421 E23.60879
G1 X107.105 Y145.366 E23.7181
G1 X105.918 Y145.248 E23.91647
G1 X105.149 Y145.16 E24.04519
G1 X104.842 Y145.115 E24.09679
G1 X104.24 Y145.013 E24.19833
G1 X103.076 Y144.802 E24.39506
G1 X102.332 Y144.656 E24.52115
G1 X102.03 Y144.588 E24.57263
G1 X101.411 Y144.429 E24.67891
G1 X100.32 Y144.138 E24.86669
G1 X99.558 Y143.923 E24.99835
G1 X99.29 Y143.84 E25.04501
G1 X98.72 Y143.647 E25.14509
G1 X97.522 Y143.219 E25.35665
G1 X96.863 Y142.973 E25.47363
G1 X96.489 Y142.822 E25.5407
G1 X95.956 Y142.589 E25.63744
G1 X94.884 Y142.105 E25.83304
G1 X94.215 Y141.792 E25.95587
G1 X93.88 Y141.623 E26.01827
G1 X93.3 Y141.311 E26.1278
G1 X92.307 Y140.761 E26.31657
G1 X91.58 Y140.343 E26.45603
G1 X91.37 Y140.213 E26.4971
G1 X90.785 Y139.835 E26.61293
G1 X89.846 Y139.209 E26.80061
G1 X89.262 Y138.809 E26.91833
G1 X89.049 Y138.656 E26.96194
G1 X88.529 Y138.257 E27.07094
G1 X87.528 Y137.467 E27.283
G1 X86.89 Y136.946 E27.41999
G1 X86.706 Y136.785 E27.46064
G1 X86.216 Y136.339 E27.57083
G1 X85.37 Y135.549 E27.76333
G1 X84.832 Y135.033 E27.8873
G1 X84.626 Y134.825 E27.93598
G1 X84.213 Y134.384 E28.03646
G1 X83.341 Y133.425 E28.25201
G1 X82.855 Y132.875 E28.37407
G1 X82.641 Y132.617 E28.42981
G1 X82.262 Y132.137 E28.53152
G1 X81.533 Y131.192 E28.73
G1 X81.082 Y130.588 E28.85536
G1 X80.91 Y130.344 E28.90501
G1 X80.521 Y129.759 E29.02184
G1 X79.945 Y128.87 E29.198
G1 X79.525 Y128.204 E29.32894
G1 X79.374 Y127.95 E29.37808
G1 X79.039 Y127.349 E29.4925
G1 X78.479 Y126.31 E29.68879
G1 X78.151 Y125.679 E29.80706
G1 X78.025 Y125.422 E29.85466
G1 X77.971 Y125.307 E29.87578
G1 X77.746 Y124.808 E29.96681
G1 X77.24 Y123.651 E30.17682
G1 X76.948 Y122.953 E30.30265
G1 X76.843 Y122.68 E30.35129
G1 X76.631 Y122.087 E30.45602
G1 X76.265 Y121.02 E30.64361
G1 X76.02 Y120.272 E30.7745
G1 X75.911 Y119.906 E30.83801
G1 X75.772 Y119.382 E30.92817
G1 X75.462 Y118.168 E31.13653
G1 X75.288 Y117.437 E31.2615
G1 X75.228 Y117.146 E31.31091
G1 X75.106 Y116.477 E31.424
G1 X74.915 Y115.338 E31.61606
G1 X74.807 Y114.642 E31.73319
G1 X74.773 Y114.393 E31.77498
G1 X74.756 Y114.243 E31.80009
G1 X74.701 Y113.674 E31.89515
G1 X74.596 Y112.459 E32.09796
G1 X74.542 Y111.693 E32.22566
G1 X74.529 Y111.396 E32.2751
G1 X74.518 Y110.723 E32.38704
G1 X74.513 Y109.534 E32.58477
G1 X74.519 Y108.887 E32.69237
G1 X74.527 Y108.623 E32.7363
G1 X74.534 Y108.48 E32.76011
G1 X74.577 Y107.833 E32.86794
G1 X74.666 Y106.684 E33.05959
G1 X74.73 Y105.978 E33.17748
G1 X74.759 Y105.72 E33.22066
G1 X74.863 Y105.008 E33.34032
G1 X75.044 Y103.876 E33.53096
G1 X75.187 Y103.065 E33.66791
G1 X75.244 Y102.781 E33.71608
G1 X75.406 Y102.083 E33.83525
G1 X75.675 Y100.989 E34.0226
G1 X75.877 Y100.22 E34.15482
G1 X75.96 Y99.937 E34.20387
G1 X76.169 Y99.286 E34.31757
G1 X76.531 Y98.204 E34.50731
G1 X76.795 Y97.447 E34.64064
G1 X76.888 Y97.207 E34.68344
G1 X77.138 Y96.603 E34.79215
G1 X77.592 Y95.542 E34.98407
G1 X77.878 Y94.898 E35.10126
G1 X78.002 Y94.635 E35.14961
G1 X78.291 Y94.065 E35.25589
G1 X78.886 Y92.936 E35.46812
G1 X79.223 Y92.318 E35.58518
G1 X79.425 Y91.971 E35.65196
G1 X79.732 Y91.476 E35.74882
G1 X80.356 Y90.495 E35.94217
G1 X80.775 Y89.854 E36.06952
G1 X80.95 Y89.602 E36.12054
G1 X81.346 Y89.065 E36.2315
G1 X82.081 Y88.097 E36.43363
G1 X82.487 Y87.576 E36.54347
G1 X82.667 Y87.355 E36.59087
G1 X82.763 Y87.242 E36.61553
G1 X83.166 Y86.781 E36.71736
G1 X83.914 Y85.946 E36.90379
G1 X84.427 Y85.388 E37.02984
G1 X84.621 Y85.186 E37.07642
G0 F7500 X85.414 Y85.806
G1 F1500 X85.792 Y85.438 E37.16415
G1 X86.681 Y84.596 E37.36778
G1 X87.192 Y84.124 E37.48346
G1 X87.384 Y83.955 E37.526
G1 X87.857 Y83.563 E37.62816
G1 X88.814 Y82.793 E37.83243
G1 X89.373 Y82.355 E37.95053
G1 X89.578 Y82.202 E37.99307
G1 X90.099 Y81.838 E38.09876
G1 X91.118 Y81.147 E38.30351
G1 X91.712 Y80.755 E38.42186
G1 X91.922 Y80.625 E38.46294
G1 X92.484 Y80.298 E38.57107
G1 X93.535 Y79.704 E38.77183
G1 X94.155 Y79.365 E38.88935
G1 X94.364 Y79.257 E38.92847
G1 X94.995 Y78.955 E39.0448
G1 X96.015 Y78.483 E39.23171
G1 X96.711 Y78.173 E39.35842
G1 X96.944 Y78.076 E39.40039
G1 X97.474 Y77.873 E39.49477
G1 X98.698 Y77.425 E39.71153
G1 X99.424 Y77.172 E39.83939
G1 X99.665 Y77.097 E39.88136
G1 X100.241 Y76.93 E39.9811
G1 X101.39 Y76.612 E40.17936
G1 X102.019 Y76.447 E40.2875
G1 X102.273 Y76.387 E40.3309
G1 X102.946 Y76.249 E40.44515
G1 X104.164 Y76.018 E40.65132
G1 X104.79 Y75.908 E40.75702
G1 X105.024 Y75.873 E40.79636
G1 X105.77 Y75.783 E40.92132
G1 X106.853 Y75.667 E41.10246
G1 X107.631 Y75.595 E41.23239
G1 X107.861 Y75.58 E41.27072
G1 X108.495 Y75.554 E41.37625
G1 X109.735 Y75.524 E41.58252
G1 X110.405 Y75.517 E41.69395
G1 X110.766 Y75.523 E41.75399
G1 X111.321 Y75.548 E41.84638
G1 X112.547 Y75.618 E42.0506
G1 X113.28 Y75.671 E42.17281
G1 X113.52 Y75.695 E42.21293
G1 X114.192 Y75.78 E42.32557
G1 X115.308 Y75.936 E42.51297
G1 X116.019 Y76.045 E42.63259
G1 X116.34 Y76.103 E42.68683
G1 X116.896 Y76.22 E42.78132
G1 X118.073 Y76.484 E42.98192
G1 X118.822 Y76.664 E43.11003
G1 X119.052 Y76.726 E43.14964
G1 X119.698 Y76.918 E43.26172
G1 X120.751 Y77.246 E43.44513
G1 X121.464 Y77.479 E43.56987
G1 X121.676 Y77.554 E43.60727
G1 X122.292 Y77.79 E43.71697
G1 X123.417 Y78.245 E43.91878
G1 X124.179 Y78.567 E44.05635
G1 X124.395 Y78.667 E44.09594
G1 X124.874 Y78.9 E44.18452
G1 X125.973 Y79.451 E44.38897
G1 X126.592 Y79.773 E44.505
G1 X126.8 Y79.888 E44.54453
G1 X127.441 Y80.266 E44.66828
G1 X128.409 Y80.856 E44.8568
G1 X129.043 Y81.254 E44.98129
G1 X129.246 Y81.389 E45.02184
G1 X129.783 Y81.769 E45.13124
G1 X130.704 Y82.439 E45.32064
G1 X131.279 Y82.869 E45.44004
G1 X131.539 Y83.076 E45.49531
G1 X132.001 Y83.463 E45.59554
G1 X132.886 Y84.225 E45.78975
G1 X133.493 Y84.762 E45.92453
G1 X133.657 Y84.917 E45.96205
G1 X134.085 Y85.339 E46.06201
G1 X134.892 Y86.154 E46.25275
G1 X135.398 Y86.681 E46.37425
G1 X135.629 Y86.936 E46.43147
G1 X136.014 Y87.383 E46.52957
G1 X136.79 Y88.309 E46.73049
G1 X137.213 Y88.827 E46.84171
G1 X137.412 Y89.085 E46.89589
G1 X137.785 Y89.599 E47.00151
G1 X138.431 Y90.511 E47.18737
G1 X138.897 Y91.189 E47.32418
G1 X139.032 Y91.399 E47.3657
G1 X139.35 Y91.922 E47.46749
G1 X139.962 Y92.956 E47.66731
G1 X140.333 Y93.605 E47.79163
G1 X140.471 Y93.864 E47.84043
G1 X140.689 Y94.301 E47.92165
G1 X141.258 Y95.469 E48.13771
G1 X141.554 Y96.1 E48.25362
G1 X141.651 Y96.323 E48.29406
G1 X141.9 Y96.939 E48.40455
G1 X142.322 Y98.024 E48.59816
G1 X142.607 Y98.793 E48.73454
G1 X142.679 Y99.008 E48.77225
G1 X142.845 Y99.539 E48.86477
G1 X143.196 Y100.716 E49.06902
G1 X143.377 Y101.355 E49.17947
G1 X143.457 Y101.671 E49.23368
G1 X143.612 Y102.36 E49.35112
G1 X143.829 Y103.389 E49.52601
G1 X143.987 Y104.199 E49.66325
G1 X144.026 Y104.431 E49.70237
G1 X144.113 Y105.052 E49.80666
G1 X144.259 Y106.204 E49.99977
G1 X144.338 Y106.9 E50.11625
G1 X144.361 Y107.151 E50.15817
G1 X144.37 Y107.273 E50.17852
G1 X144.402 Y107.829 E50.27113
G1 X144.454 Y108.979 E50.46257
G1 X144.479 Y109.783 E50.59634
G1 X144.48 Y110.03 E50.63742
G1 X144.464 Y110.675 E50.74472
G1 X144.42 Y111.848 E50.93992
G1 X144.379 Y112.638 E51.07148
G1 X144.358 Y112.882 E51.11221
G1 X144.299 Y113.444 E51.20618
G1 X144.151 Y114.677 E51.4127
G1 X144.051 Y115.417 E51.53688
G1 X144.013 Y115.654 E51.5768
G1 X143.901 Y116.243 E51.67651
G1 X143.664 Y117.417 E51.87568
G1 X143.523 Y118.072 E51.9871
G1 X143.463 Y118.318 E52.02921
G1 X143.258 Y119.062 E52.15755
G1 X142.963 Y120.085 E52.33461
G1 X142.74 Y120.817 E52.46186
G1 X142.666 Y121.038 E52.50062
G1 X142.423 Y121.709 E52.6193
G1 X142.022 Y122.764 E52.807
G1 X141.757 Y123.434 E52.92682
G1 X141.626 Y123.738 E52.98187
G1 X141.373 Y124.286 E53.08224
G1 X140.879 Y125.324 E53.27341
G1 X140.519 Y126.05 E53.40818
G1 X140.407 Y126.262 E53.44805
G1 X140.096 Y126.812 E53.55312
G1 X139.516 Y127.809 E53.74494
G1 X139.114 Y128.477 E53.8746
G1 X138.985 Y128.679 E53.91445
G1 X138.64 Y129.188 E54.01671
G1 X137.938 Y130.196 E54.22099
G1 X137.506 Y130.797 E54.34408
G1 X137.36 Y130.988 E54.38406
G1 X136.972 Y131.468 E54.4867
G1 X136.247 Y132.348 E54.67631
G1 X135.677 Y133.017 E54.82247
G1 X135.529 Y133.18 E54.85909
G1 X135.148 Y133.581 E54.95108
G1 X134.325 Y134.429 E55.14759
G1 X133.769 Y134.984 E55.27824
G1 X133.588 Y135.155 E55.31965
G1 X133.103 Y135.588 E55.42777
G1 X132.242 Y136.34 E55.61788
G1 X131.699 Y136.801 E55.73634
G1 X131.445 Y137.006 E55.79062
G1 X130.971 Y137.365 E55.8895
G1 X130.058 Y138.038 E56.07813
G1 X129.373 Y138.529 E56.21828
G1 X129.167 Y138.668 E56.25961
G1 X128.707 Y138.961 E56.35031
G1 X127.656 Y139.613 E56.55599
G1 X127.071 Y139.964 E56.66945
G1 X126.795 Y140.119 E56.72209
G1 X126.223 Y140.422 E56.82973
G1 X125.234 Y140.928 E57.01448
G1 X124.56 Y141.262 E57.13958
G1 X124.343 Y141.363 E57.17938
G1 X123.683 Y141.647 E57.29887
G1 X122.618 Y142.087 E57.4905
G1 X121.96 Y142.348 E57.60822
G1 X121.664 Y142.456 E57.66062
G1 X121.132 Y142.633 E57.75386
G1 X119.948 Y143.013 E57.96065
G1 X119.302 Y143.211 E58.07301
G1 X119.071 Y143.276 E58.11292
G1 X118.438 Y143.433 E58.22138
G1 X117.196 Y143.721 E58.43341
G1 X116.44 Y143.884 E58.56202
G1 X116.24 Y143.92 E58.59581
G1 X115.656 Y144.014 E58.69418
G1 X114.529 Y144.181 E58.88365
G1 X113.732 Y144.288 E59.01738
G1 X113.487 Y144.314 E59.05835
G1 X112.817 Y144.367 E59.17012
G1 X111.716 Y144.438 E59.3536
G1 X110.972 Y144.477 E59.4775
G1 X110.708 Y144.485 E59.52142
G1 X110.147 Y144.484 E59.61472
G1 X108.869 Y144.464 E59.82727
G1 X108.047 Y144.438 E59.96404
G1 X107.843 Y144.424 E59.99805
G1 X107.203 Y144.37 E60.10486
G1 X106.03 Y144.254 E60.30088
G1 X105.282 Y144.169 E60.42607
G1 X105.009 Y144.129 E60.47196
G1 X104.418 Y144.029 E60.57164
G1 X103.268 Y143.821 E60.76599
G1 X102.524 Y143.675 E60.89207
