;FLAVOR:Marlin
;TIME:10961
;Filament used: 28.8867m
;Layer height: 0.3
;MINX:22.521
;MINY:15.6
;MINZ:0.4
;MAXX:197.479
;MAXY:204.399
;MAXZ:11.2
;Generated with Cura_SteamEngine 4.12.1
M140 S80
M105
M190 S80
M104 S220
M105
M109 S220
M82 ;absolute extrusion mode
G28 ;Home
G1 Z15.0 F2000 ;Move the platform
G92 E0
G92 E0
G1 F1500 E-6.5
;LAYER_COUNT:37
;LAYER:0
M107
M204 S1000
G0 F7500 X35.146 Y52.209 Z0.4
;TYPE:SKIRT
G1 F1500 E0
G1 X35.731 Y51.897 E0.11026
G1 X36.35 Y51.659 E0.22054
G1 X36.984 Y51.498 E0.32933
G1 X37.222 Y51.453 E0.36961
G1 X39.639 Y51.038 E0.77744
G1 X42.263 Y50.51 E1.22256
G1 X44.807 Y49.925 E1.65667
G1 X47.465 Y49.231 E2.11351
G1 X50.01 Y48.491 E2.55428
G1 X52.563 Y47.668 E3.00036
G1 X55.062 Y46.785 E3.44112
G1 X57.567 Y45.818 E3.88767
G1 X60.035 Y44.784 E4.33266
G1 X62.466 Y43.687 E4.7762
G1 X64.867 Y42.518 E5.2203
G1 X67.223 Y41.288 E5.66228
G1 X69.578 Y39.971 E6.111
G1 X71.871 Y38.603 E6.55503
G1 X74.142 Y37.16 E7.00249
G1 X76.326 Y35.683 E7.44095
G1 X78.506 Y34.118 E7.88724
G1 X80.642 Y32.492 E8.33367
G1 X82.7 Y30.83 E8.77358
G1 X84.748 Y29.079 E9.22168
G1 X86.72 Y27.292 E9.66424
G1 X88.666 Y25.427 E10.11249
G1 X90.549 Y23.518 E10.55841
G1 X92.355 Y21.579 E10.99907
G1 X94.125 Y19.568 E11.44459
G1 X95.186 Y18.308 E11.71852
G1 X95.763 Y17.609 E11.86925
G1 X96.216 Y17.124 E11.97962
G1 X96.723 Y16.697 E12.08985
G1 X97.278 Y16.334 E12.20014
G1 X97.873 Y16.041 E12.31043
G1 X98.498 Y15.821 E12.42062
G1 X99.146 Y15.678 E12.53098
G1 X99.826 Y15.614 E12.64456
G1 X100.134 Y15.604 E12.69581
G1 X100.312 Y15.601 E12.72542
G1 X119.293 Y15.6 E15.88197
G1 X120.073 Y15.611 E16.0117
G1 X120.735 Y15.66 E16.12209
G1 X121.385 Y15.789 E16.23229
G1 X122.015 Y15.994 E16.34247
G1 X122.616 Y16.275 E16.4528
G1 X123.179 Y16.625 E16.56304
G1 X123.695 Y17.041 E16.67327
G1 X124.176 Y17.536 E16.78805
G1 X124.33 Y17.718 E16.8277
G1 X125.883 Y19.586 E17.23168
G1 X127.621 Y21.558 E17.66882
G1 X129.48 Y23.553 E18.1223
G1 X131.334 Y25.431 E18.56117
G1 X133.277 Y27.294 E19.00882
G1 X135.269 Y29.096 E19.45553
G1 X137.302 Y30.833 E19.90021
G1 X139.346 Y32.483 E20.33706
G1 X141.525 Y34.14 E20.7923
G1 X143.656 Y35.671 E21.22867
G1 X145.894 Y37.182 E21.67774
G1 X148.124 Y38.599 E22.11712
G1 X150.44 Y39.979 E22.56546
G1 X152.755 Y41.273 E23.00651
G1 X155.139 Y42.517 E23.4537
G1 X157.557 Y43.693 E23.90085
G1 X159.957 Y44.777 E24.3388
G1 X162.458 Y45.824 E24.78969
G1 X164.945 Y46.783 E25.23296
G1 X167.471 Y47.673 E25.67835
G1 X169.991 Y48.485 E26.11865
G1 X172.57 Y49.235 E26.5653
G1 X175.171 Y49.911 E27.01222
G1 X177.75 Y50.506 E27.45238
G1 X180.388 Y51.036 E27.89984
G1 X181.82 Y51.293 E28.14179
G1 X182.879 Y51.472 E28.3204
G1 X183.525 Y51.621 E28.43065
G1 X184.424 Y51.976 E28.59139
G1 X184.45 Y51.989 E28.59623
G1 X185.024 Y52.32 E28.70642
G1 X185.554 Y52.719 E28.81674
G1 X186.032 Y53.178 E28.92695
G1 X186.451 Y53.691 E29.0371
G1 X186.672 Y54.022 E29.10329
G1 X186.836 Y54.288 E29.15525
G1 X186.917 Y54.424 E29.18158
G1 X196.455 Y70.946 E32.35418
G1 X196.781 Y71.53 E32.4654
G1 X197.069 Y72.128 E32.57578
G1 X197.283 Y72.755 E32.68596
G1 X197.419 Y73.404 E32.79623
G1 X197.477 Y74.064 E32.90641
G1 X197.455 Y74.727 E33.01673
G1 X197.353 Y75.382 E33.12697
G1 X197.185 Y75.987 E33.23139
G1 X197.095 Y76.244 E33.27667
G1 X196.238 Y78.565 E33.68813
G1 X195.393 Y81.075 E34.12856
G1 X194.604 Y83.654 E34.57708
G1 X193.902 Y86.207 E35.0174
G1 X193.251 Y88.858 E35.47136
G1 X192.703 Y91.42 E35.90706
G1 X192.214 Y94.053 E36.35242
G1 X191.798 Y96.705 E36.79884
G1 X191.459 Y99.366 E37.24494
G1 X191.196 Y102.016 E37.6878
G1 X191.009 Y104.669 E38.13009
G1 X190.896 Y107.358 E38.57767
G1 X190.859 Y110.018 E39.02007
G1 X190.898 Y112.676 E39.46215
G1 X191.013 Y115.373 E39.91107
G1 X191.2 Y118.011 E40.35087
G1 X191.469 Y120.705 E40.80111
G1 X191.807 Y123.34 E41.24291
G1 X192.22 Y125.969 E41.68547
G1 X192.715 Y128.623 E42.13445
G1 X193.266 Y131.178 E42.56911
G1 X193.911 Y133.812 E43.02009
G1 X194.625 Y136.399 E43.46639
G1 X195.402 Y138.939 E43.90812
G1 X196.269 Y141.504 E44.35839
G1 X196.73 Y142.779 E44.58386
G1 X197.138 Y143.883 E44.77959
G1 X197.33 Y144.518 E44.88991
G1 X197.444 Y145.171 E45.00015
G1 X197.479 Y145.833 E45.11039
G1 X197.434 Y146.495 E45.22074
G1 X197.309 Y147.146 E45.33098
G1 X197.107 Y147.778 E45.44132
G1 X196.814 Y148.412 E45.55747
G1 X196.641 Y148.731 E45.61782
G1 X196.569 Y148.859 E45.64224
G1 X187.086 Y165.283 E48.79615
G1 X186.704 Y165.922 E48.91996
G1 X186.33 Y166.47 E49.03029
G1 X185.893 Y166.968 E49.14047
G1 X185.399 Y167.411 E49.25082
G1 X184.855 Y167.79 E49.36108
G1 X184.27 Y168.102 E49.47134
G1 X183.652 Y168.341 E49.58153
G1 X183.016 Y168.502 E49.69063
G1 X182.778 Y168.547 E49.73091
G1 X180.361 Y168.962 E50.13874
G1 X177.737 Y169.49 E50.58386
G1 X175.193 Y170.075 E51.01797
G1 X172.535 Y170.769 E51.47482
G1 X169.99 Y171.509 E51.91558
G1 X167.437 Y172.332 E52.36166
G1 X164.938 Y173.215 E52.80243
G1 X162.433 Y174.182 E53.24897
G1 X159.965 Y175.216 E53.69397
G1 X157.534 Y176.313 E54.1375
G1 X155.133 Y177.482 E54.5816
G1 X152.777 Y178.712 E55.02359
G1 X150.422 Y180.029 E55.47231
G1 X148.129 Y181.397 E55.91634
G1 X145.858 Y182.84 E56.3638
G1 X143.674 Y184.317 E56.80226
G1 X141.494 Y185.882 E57.24854
G1 X139.358 Y187.508 E57.69497
G1 X137.3 Y189.17 E58.13489
G1 X135.252 Y190.921 E58.58298
G1 X133.28 Y192.708 E59.02555
G1 X131.334 Y194.573 E59.47379
G1 X129.451 Y196.482 E59.91971
G1 X127.645 Y198.421 E60.36037
G1 X125.875 Y200.432 E60.80589
G1 X124.814 Y201.692 E61.07983
G1 X124.237 Y202.391 E61.23056
G1 X123.784 Y202.876 E61.34092
G1 X123.277 Y203.303 E61.45116
G1 X122.722 Y203.666 E61.56144
G1 X122.127 Y203.959 E61.67174
G1 X121.502 Y204.179 E61.78193
G1 X120.854 Y204.322 E61.89228
G1 X120.174 Y204.386 E62.00587
G1 X119.866 Y204.396 E62.05711
G1 X119.688 Y204.399 E62.08672
G1 X100.629 Y204.399 E65.25625
G1 X99.927 Y204.389 E65.373
G1 X99.265 Y204.34 E65.48339
G1 X98.615 Y204.211 E65.5936
G1 X97.985 Y204.006 E65.70377
G1 X97.384 Y203.725 E65.8141
G1 X96.821 Y203.375 E65.92435
G1 X96.305 Y202.959 E66.03457
G1 X95.82 Y202.459 E66.15042
G1 X95.636 Y202.243 E66.1976
G1 X94.099 Y200.394 E66.59746
G1 X92.379 Y198.442 E67.03012
G1 X90.519 Y196.446 E67.48384
G1 X88.666 Y194.569 E67.92246
G1 X86.722 Y192.705 E68.37035
G1 X84.731 Y190.904 E68.81682
G1 X82.698 Y189.167 E69.26151
G1 X80.654 Y187.517 E69.69836
G1 X78.475 Y185.86 E70.1536
G1 X76.344 Y184.329 E70.58997
G1 X74.106 Y182.818 E71.03903
G1 X71.876 Y181.401 E71.47842
G1 X69.56 Y180.021 E71.92676
G1 X67.245 Y178.727 E72.36781
G1 X64.861 Y177.483 E72.815
G1 X62.443 Y176.307 E73.26215
G1 X60.043 Y175.223 E73.70009
G1 X57.542 Y174.176 E74.15099
G1 X55.055 Y173.217 E74.59426
G1 X52.529 Y172.327 E75.03965
G1 X50.009 Y171.515 E75.47994
G1 X47.43 Y170.765 E75.9266
G1 X44.829 Y170.089 E76.37352
G1 X42.25 Y169.494 E76.81368
G1 X39.612 Y168.964 E77.26114
G1 X38.176 Y168.706 E77.50377
G1 X37.121 Y168.528 E77.6817
G1 X36.475 Y168.379 E77.79195
G1 X35.852 Y168.153 E77.90216
G1 X35.477 Y167.974 E77.97127
G1 X34.908 Y167.634 E78.0815
G1 X34.384 Y167.227 E78.19184
G1 X33.913 Y166.761 E78.30202
G1 X33.326 Y165.975 E78.46516
G1 X33.097 Y165.599 E78.53838
G1 X23.543 Y149.05 E81.71619
G1 X23.217 Y148.465 E81.82757
G1 X22.929 Y147.868 E81.9378
G1 X22.716 Y147.24 E82.04808
G1 X22.58 Y146.591 E82.15835
G1 X22.523 Y145.931 E82.26852
G1 X22.546 Y145.268 E82.37884
G1 X22.648 Y144.613 E82.48908
G1 X22.824 Y143.987 E82.59722
G1 X22.905 Y143.757 E82.63777
G1 X23.762 Y141.436 E83.04923
G1 X24.607 Y138.926 E83.48966
G1 X25.399 Y136.338 E83.93975
G1 X26.096 Y133.803 E84.37697
G1 X26.749 Y131.142 E84.83262
G1 X27.297 Y128.58 E85.26832
G1 X27.786 Y125.947 E85.71368
G1 X28.202 Y123.295 E86.1601
G1 X28.544 Y120.609 E86.61039
G1 X28.804 Y117.984 E87.04907
G1 X28.991 Y115.331 E87.49136
G1 X29.105 Y112.614 E87.94359
G1 X29.141 Y109.978 E88.382
G1 X29.102 Y107.324 E88.82341
G1 X28.987 Y104.627 E89.27233
G1 X28.8 Y101.985 E89.7128
G1 X28.531 Y99.297 E90.16205
G1 X28.193 Y96.66 E90.60417
G1 X27.779 Y94.03 E91.04693
G1 X27.285 Y91.378 E91.49554
G1 X26.734 Y88.822 E91.93037
G1 X26.086 Y86.178 E92.38308
G1 X25.378 Y83.609 E92.82624
G1 X24.598 Y81.061 E93.26938
G1 X23.736 Y78.51 E93.71718
G1 X23.258 Y77.186 E93.95127
G1 X22.863 Y76.119 E94.14048
G1 X22.67 Y75.485 E94.25069
G1 X22.556 Y74.831 E94.3611
G1 X22.521 Y74.169 E94.47134
G1 X22.566 Y73.508 E94.58152
G1 X22.69 Y72.857 E94.69173
G1 X22.892 Y72.225 E94.80207
G1 X23.186 Y71.589 E94.91859
G1 X23.359 Y71.27 E94.97894
G1 X23.431 Y71.142 E95.00336
G1 X32.956 Y54.646 E98.17113
G1 X33.297 Y54.076 E98.28159
G1 X33.671 Y53.529 E98.39179
G1 X34.108 Y53.031 E98.50197
G1 X34.602 Y52.588 E98.61232
G1 X35.146 Y52.209 E98.72258
G0 F7500 X35.867 Y52.947
G1 F1500 X36.411 Y52.696 E98.82221
G1 X37.172 Y52.48 E98.95376
G1 X37.391 Y52.439 E98.99082
G1 X39.796 Y52.026 E99.39662
G1 X42.468 Y51.488 E99.8499
G1 X45.081 Y50.887 E100.29579
G1 X47.703 Y50.203 E100.74642
G1 X50.311 Y49.444 E101.19812
G1 X52.855 Y48.625 E101.64258
G1 X55.439 Y47.711 E102.09839
G1 X57.924 Y46.752 E102.54135
G1 X60.444 Y45.697 E102.99567
G1 X62.882 Y44.595 E103.44061
G1 X65.32 Y43.409 E103.89148
G1 X67.712 Y42.16 E104.34023
G1 X70.074 Y40.839 E104.79029
G1 X72.389 Y39.459 E105.23849
G1 X74.684 Y38 E105.69075
G1 X76.899 Y36.503 E106.13534
G1 X79.101 Y34.922 E106.58615
G1 X81.265 Y33.274 E107.0385
G1 X83.345 Y31.594 E107.48314
G1 X85.416 Y29.823 E107.9363
G1 X87.395 Y28.03 E108.3804
G1 X89.363 Y26.144 E108.8337
G1 X91.267 Y24.213 E109.28468
G1 X93.098 Y22.248 E109.73134
G1 X94.916 Y20.182 E110.189
G1 X95.922 Y18.986 E110.4489
G1 X96.534 Y18.245 E110.60872
G1 X96.946 Y17.81 E110.70836
G1 X97.412 Y17.432 E110.80815
G1 X97.924 Y17.12 E110.90786
G1 X98.474 Y16.879 E111.00772
G1 X99.05 Y16.713 E111.1074
G1 X99.858 Y16.613 E111.2428
G1 X100.166 Y16.603 E111.29405
G1 X100.312 Y16.601 E111.31833
G1 X119.357 Y16.6 E114.48553
G1 X120.059 Y16.61 E114.60228
G1 X120.657 Y16.659 E114.70206
G1 X121.243 Y16.786 E114.80178
G1 X121.807 Y16.991 E114.90157
G1 X122.338 Y17.268 E115.00117
G1 X122.828 Y17.614 E115.10093
G1 X123.416 Y18.186 E115.23735
G1 X123.561 Y18.357 E115.27463
G1 X125.121 Y20.233 E115.68039
G1 X126.899 Y22.25 E116.12753
G1 X128.743 Y24.231 E116.57761
G1 X130.638 Y26.149 E117.026
G1 X132.604 Y28.033 E117.47883
G1 X134.582 Y29.824 E117.92258
G1 X136.675 Y31.612 E118.38037
G1 X138.745 Y33.283 E118.82277
G1 X140.906 Y34.927 E119.27432
G1 X143.092 Y36.497 E119.7219
G1 X145.345 Y38.018 E120.17397
G1 X147.591 Y39.445 E120.61649
G1 X149.959 Y40.856 E121.0749
G1 X152.293 Y42.16 E121.51952
G1 X154.671 Y43.402 E121.96567
G1 X157.113 Y44.589 E122.41721
G1 X159.592 Y45.709 E122.86959
G1 X162.071 Y46.746 E123.31647
G1 X164.619 Y47.729 E123.77064
G1 X167.137 Y48.617 E124.21466
G1 X169.688 Y49.438 E124.66032
G1 X172.305 Y50.199 E125.11356
G1 X174.912 Y50.877 E125.56153
G1 X177.545 Y51.484 E126.01088
G1 X180.21 Y52.02 E126.46295
G1 X181.647 Y52.278 E126.70574
G1 X182.713 Y52.458 E126.88553
G1 X183.296 Y52.597 E126.9852
G1 X183.976 Y52.87 E127.10706
G1 X184.002 Y52.883 E127.11189
G1 X184.52 Y53.186 E127.21169
G1 X184.992 Y53.556 E127.31143
G1 X185.411 Y53.985 E127.41115
G1 X185.82 Y54.546 E127.52661
G1 X186.051 Y54.924 E127.60028
G1 X195.582 Y71.434 E130.77057
G1 X195.908 Y72.018 E130.88179
G1 X196.165 Y72.56 E130.98155
G1 X196.347 Y73.131 E131.08121
G1 X196.452 Y73.721 E131.18087
G1 X196.478 Y74.32 E131.28058
G1 X196.423 Y74.918 E131.38045
G1 X196.238 Y75.664 E131.50826
G1 X196.157 Y75.898 E131.54944
G1 X195.29 Y78.247 E131.96584
G1 X194.437 Y80.78 E132.41033
G1 X193.651 Y83.348 E132.85694
G1 X192.923 Y85.994 E133.31333
G1 X192.281 Y88.612 E133.7616
G1 X191.719 Y91.238 E134.2082
G1 X191.232 Y93.863 E134.65218
G1 X190.809 Y96.56 E135.10618
G1 X190.466 Y99.248 E135.55682
G1 X190.201 Y101.919 E136.00319
G1 X190.01 Y104.628 E136.45482
G1 X189.897 Y107.303 E136.90007
G1 X189.86 Y110.019 E137.35178
G1 X189.899 Y112.733 E137.80317
G1 X190.014 Y115.415 E138.2496
G1 X190.205 Y118.113 E138.6994
G1 X190.476 Y120.825 E139.15265
G1 X190.816 Y123.476 E139.59713
G1 X191.234 Y126.132 E140.04426
G1 X191.732 Y128.807 E140.49676
G1 X192.293 Y131.41 E140.93958
G1 X192.946 Y134.074 E141.39572
G1 X193.663 Y136.674 E141.84424
G1 X194.457 Y139.267 E142.29522
G1 X195.306 Y141.781 E142.7365
G1 X195.803 Y143.155 E142.97948
G1 X196.2 Y144.23 E143.17006
G1 X196.37 Y144.805 E143.26977
G1 X196.462 Y145.398 E143.36957
G1 X196.474 Y145.997 E143.4692
G1 X196.407 Y146.593 E143.56894
G1 X196.261 Y147.175 E143.66873
G1 X195.935 Y147.935 E143.80625
G1 X195.703 Y148.359 E143.88663
G1 X186.227 Y164.77 E147.03808
G1 X185.845 Y165.409 E147.16189
G1 X185.504 Y165.902 E147.26158
G1 X185.1 Y166.345 E147.36128
G1 X184.641 Y166.731 E147.46102
G1 X184.135 Y167.052 E147.56067
G1 X183.59 Y167.303 E147.66046
G1 X182.828 Y167.52 E147.79222
G1 X182.609 Y167.561 E147.82927
G1 X180.204 Y167.974 E148.23508
G1 X177.532 Y168.512 E148.68835
G1 X174.919 Y169.113 E149.13424
G1 X172.297 Y169.797 E149.58487
G1 X169.689 Y170.556 E150.03658
G1 X167.145 Y171.375 E150.48103
G1 X164.561 Y172.289 E150.93684
G1 X162.076 Y173.248 E151.3798
G1 X159.556 Y174.303 E151.83413
G1 X157.118 Y175.405 E152.27906
G1 X154.68 Y176.591 E152.72993
G1 X152.288 Y177.84 E153.17869
G1 X149.926 Y179.161 E153.62875
G1 X147.611 Y180.541 E154.07694
G1 X145.316 Y182 E154.5292
G1 X143.101 Y183.497 E154.97379
G1 X140.899 Y185.078 E155.4246
G1 X138.735 Y186.726 E155.87695
G1 X136.655 Y188.406 E156.32159
G1 X134.584 Y190.177 E156.77476
G1 X132.605 Y191.97 E157.21885
G1 X130.637 Y193.856 E157.67216
G1 X128.733 Y195.787 E158.12313
G1 X126.902 Y197.752 E158.56979
G1 X125.092 Y199.808 E159.02532
G1 X124.078 Y201.014 E159.28735
G1 X123.466 Y201.755 E159.44718
G1 X123.054 Y202.19 E159.54682
G1 X122.588 Y202.568 E159.6466
G1 X122.076 Y202.88 E159.74631
G1 X121.526 Y203.121 E159.84617
G1 X120.95 Y203.287 E159.94586
G1 X120.142 Y203.387 E160.08126
G1 X119.834 Y203.397 E160.1325
G1 X119.688 Y203.399 E160.15679
G1 X100.643 Y203.4 E163.32398
G1 X99.941 Y203.39 E163.44074
G1 X99.343 Y203.341 E163.54052
G1 X98.757 Y203.214 E163.64023
G1 X98.193 Y203.009 E163.74003
G1 X97.662 Y202.732 E163.83963
G1 X97.172 Y202.386 E163.93938
G1 X96.581 Y201.81 E164.07662
G1 X96.405 Y201.603 E164.12181
G1 X94.866 Y199.752 E164.52213
G1 X93.101 Y197.75 E164.96598
G1 X91.256 Y195.768 E165.41629
G1 X89.362 Y193.851 E165.86445
G1 X87.395 Y191.966 E166.31751
G1 X85.418 Y190.176 E166.76103
G1 X83.325 Y188.388 E167.21881
G1 X81.255 Y186.717 E167.66122
G1 X79.094 Y185.073 E168.11277
G1 X76.908 Y183.503 E168.56035
G1 X74.655 Y181.982 E169.01241
G1 X72.409 Y180.555 E169.45494
G1 X70.041 Y179.144 E169.91335
G1 X67.707 Y177.84 E170.35796
G1 X65.329 Y176.598 E170.80411
G1 X62.887 Y175.411 E171.25565
G1 X60.408 Y174.291 E171.70804
G1 X57.929 Y173.254 E172.15491
G1 X55.381 Y172.271 E172.60909
G1 X52.863 Y171.383 E173.05311
G1 X50.312 Y170.562 E173.49877
G1 X47.695 Y169.801 E173.95201
G1 X45.088 Y169.123 E174.39997
G1 X42.455 Y168.516 E174.84933
G1 X39.79 Y167.98 E175.3014
G1 X38.353 Y167.722 E175.54419
G1 X37.287 Y167.542 E175.72398
G1 X36.704 Y167.403 E175.82365
G1 X35.965 Y167.1 E175.95647
G1 X35.938 Y167.086 E175.96153
G1 X35.425 Y166.775 E176.0613
G1 X34.958 Y166.399 E176.161
G1 X34.545 Y165.964 E176.26075
G1 X34.177 Y165.45 E176.36588
G1 X33.963 Y165.099 E176.43425
G1 X24.416 Y148.564 E179.60946
G1 X24.09 Y147.979 E179.72084
G1 X23.834 Y147.436 E179.82067
G1 X23.652 Y146.865 E179.92033
G1 X23.547 Y146.275 E180.01999
G1 X23.522 Y145.675 E180.11986
G1 X23.577 Y145.078 E180.21956
G1 X23.769 Y144.315 E180.35041
G1 X23.843 Y144.103 E180.38775
